X:1
T:James Gibb editions
T:Psalm 64 (Becker) - Schütz
%%score [ ( 1 2 ) ( 3 4 ) ]
L:1/8
Q:1/4=100
M:2/2
K:C
V:1 treble nm="Soprano Alto"
V:2 treble 
V:3 bass nm="Tenor Bass"
V:4 bass 
V:1
"^Cornelius Becker\n(1561-1604)""^Psalm 64, SWV 161""^Heinrich Schütz\n(1585-1672)" A4 | %1
w: ~Er-|
w: denn|
 ^G2 A2 B4 | B4 c2 A2 | ^G4 G4 | A6 B2 | c2 e2 d4 | c4 :|[M:2/2] !courtesy!=G4 | A2 B2 c4 | %9
w: hör mein Stimm,|Herr, wenn ich|klag, be-|hü- te|mir mein Le-|ben|rings|um mich ist|
w: ich sonst nicht|be- ste- hen|mag, weil|mich die|Feind um- ge-|ben,|||
 e4 d2 c2 | B4 e4 | d2 c2 d4 | c4 B2 A2 | G4 G4 | A2 B2 c4 | B6 (A2- | A2 ^G2) A8 |] %17
w: die bö- se|Rott, die|mir ge- schwo-||||||
w: ||||||||
V:2
 E4 | E2 E2 =G4 | G4 E2 F2 | E4 E4 | E6 =G2 | G2 G2 G4 | G4 :|[M:2/2] E4 | E2 !courtesy!=G2 G4 | %9
w: |||||||||
 A4 F2 E2 | E4 G4 | G2 E2 G4 | E4 D2 D2 | D4 E4 | E2 G2 G4 | F4 E4- | E4 E8 |] %17
w: |||ren hat den|Tod, drum|wollst du mich|ver- ber\-|* gen.|
V:3
 C4 | B,2 C2 D4 | E4 C2 D2 | B,4 B,4 | C6 D2 | E2 C2 B,4 | C4 :|[M:2/2] B,4 | C2 D2 E4 | %9
 C4 A,2 A,2 | ^G,4 C4 | B,2 A,2 B,4 | %12
 G,4"^6. Die G'rechten werden fröhlich sein\nund freuen sich im Herren,\nauf Gott ihr Trauen steht allein, \ner hilft von Herzen gerne,\n1l fromme Herzen rühmen sich, \ndaß ihnen Gott hilft mächtiglich\nund macht die Feind zu Schanden." G,2 ^F,2 | %13
 G,4 B,4 | C2 D2 E4 | D4 (C2 B,A, | B,4) ^C8 |] %17
V:4
 A,4 | E,2 A,2 G,4 | E,4 A,2 D,2 | E,4 E,4 | A,6 G,2 | C2 C,2 G,4 | C,4 :|[M:2/2] E,4 | %8
 A,2 G,2 C4 | A,4 D,2 A,2 | E,4 C,4 | G,2 A,2 G,4 | C,4 G,,2 D,2 | G,,4 E,4 | A,2 G,2 C,4 | %15
 D,4 E,4- | E,4 A,,8 |] %17

